components/Company/logos/logo-wish.svg

<svg height="140" viewBox="0 0 400 140" width="400" xmlns="http://www.w3.org/2000/svg"><path d="m126.701225 17.8656286c-1.546311-1.8176877-2.125954-4.0426654-1.737147-6.6820475.387023-2.63226778 1.623002-4.8625812 3.702585-6.67849029 2.081367-1.8194662 4.435613-2.72653147 7.068087-2.72653147 2.63069 0 4.720975.90884383 6.265502 2.72653147 1.548095 1.81413053 2.125955 4.04444395 1.738932 6.67849029-.388808 2.6393821-1.623003 4.8643598-3.702586 6.6820475-2.08315 1.8141305-4.440963 2.7247529-7.06987 2.7247529-2.632474 0-4.720975-.9088438-6.267286-2.7247529m-20.98667 9.0724312c-3.089055 0-5.9623042 2.5095472-6.3885653 5.574005l-3.1389936 22.824252c-.3460028 2.486426-1.5409606 4.6420399-3.5813065 6.4703989-2.0421294 1.828359-4.342869 2.7425385-6.8933014 2.7425385-2.4826586 0-4.4944682-.8946154-6.0300782-2.6874032-1.5409605-1.7910092-2.1313053-3.9661873-1.7781686-6.5255342l1.8940974-13.8514202c.0570726-2.7638812-2.0225107-4.9266093-4.8904095-4.9266093h-7.5086155c-2.8678988 0-5.5503116 2.1627281-6.2565851 4.9266093l-1.9565205 13.8514202c-.3531368 2.5611255-1.5516617 4.734525-3.5884405 6.5255342-2.0367789 1.7927878-4.2964976 2.6874032-6.7755892 2.6874032-2.4826586 0-4.5087364-.9141795-6.0782332-2.7425385-1.5712804-1.8265805-2.1830274-3.9839729-1.8388082-6.4703989l4.2055381-30.2853085c.4458798-2.9488514-1.305536-6.0293161-3.9772477-7.2796434 0 0-31.6717327-13.1648962-33.73526434-14.01149045-2.09028442-.85370849-4.45879783 1.06002137-5.26851551 4.25075683l-1.93511826 7.61756962c-.8115012 3.1907355 1.01660591 6.8189966 4.05750603 8.0622095l21.22566118 8.7611834-3.1800146 22.884723c-1.0665445 7.6744836.7365934 14.2409247 5.4183311 19.6868734 4.6799542 5.4495058 10.8509304 8.1707016 18.5164956 8.1707016 7.0752204 0 13.5369102-2.3743767 19.3779354-7.1284659 4.665686 4.7540892 10.5049277 7.1284659 17.5105908 7.1284659 7.6637817 0 14.59097-2.7211958 20.7851321-8.1707016 6.192378-5.4459487 9.823623-12.0123898 10.890168-19.6868734 0 0 3.326263-24.1510573 3.386902-24.5725759.288931-2.1058142-1.997541-3.8239025-5.084813-3.8239025h-7.383769zm31.113491-.2596697h-6.634691c-2.776939 0-5.359475 2.2534347-5.742931 5.0066446 0 0-6.682846 47.5853552-6.713166 47.8183464-.262178 1.8906086 1.792436 3.4379552 4.567592 3.4379552h6.634691c2.775156 0 5.357692-2.2534346 5.739365-5.0066445l6.714949-47.8183465c.262178-1.8906085-1.792436-3.4379552-4.565809-3.4379552m113.740366 6.2551932c-3.804246-4.4766338-8.953266-6.71584-15.450626-6.71584-6.499144 0-12.566676 1.4192903-18.548599 6.5682196l4.235858-29.28042244c.267528-1.92795832-1.829891-3.50554046-4.658552-3.50554046h-6.768455c-2.834012 0-5.470053 2.29789867-5.857077 5.10980099l-10.874116 74.59277881c-.267528 1.9261798 1.828107 3.5055405 4.660335 3.5055405h6.768455c2.780507 0 5.364826-2.216085 5.828541-4.9568449h.008917l3.406522-23.2635562c.688438-4.7007324 2.496927-8.2649653 5.429032-10.6891417 2.930322-2.4259549 6.128172-3.6389324 9.586416-3.6389324 6.991395 0 9.814705 4.6278114 8.461014 13.8798771l-3.629461 25.0919152c-.267528 1.9279583 1.82989 3.5055405 4.662119 3.5055405h6.764888c2.835795 0 5.46827-2.2978987 5.860644-5.109801l4.182352-27.1817224c1.091514-7.462835-.263961-13.4352373-4.066423-17.9118712m-62.879751 8.2454011 3.165747-4.0302154c1.341206-1.707417 1.373309-4.3343491.080258-6.1306941-.567159-.9728719-2.215131-1.9172869-3.720421-2.72831l-.169434-.0924851c-4.761996-2.5753539-9.441951-3.5464473-15.64503-3.2440922-6.738135.3290334-12.488201 2.3121271-17.087897 5.8959242-4.63715 3.6104754-7.258923 8.1831515-7.786844 13.5881934-.53684 5.485077 1.319804 9.5793206 5.512857 12.1706815 1.992191 1.2556629 3.813164 2.2125279 5.411197 2.845695 1.587332.6349457 3.923742 1.3783835 6.946807 2.2143064 2.935673.8163587 5.172206 1.7429881 6.641825 2.744317 1.348341.9248509 1.95117 1.9155084 1.840592 3.0288866-.112362 1.1631778-.715191 2.1040357-1.838808 2.8741519-1.168205.8003517-2.728784 1.2556629-4.633583 1.348148-5.150803.2507768-9.996624-.9479722-14.401917-3.564233l-3.26919-1.8052377c-.539905-.2940949-1.151411-.432071-1.765684-.3983973-1.01077.0428458-1.951974.5251391-2.575402 1.319691l-4.701356 6.2142864c-.48155.6367242-.670603 1.3997262-.535056 2.1467211.130197.7256522.549324 1.3517051 1.184257 1.7750022 1.539177 1.2094204 3.138993 2.2641061 4.758429 3.1373787 2.151392 1.1761986 4.423637 2.1177504 6.777372 2.8083452 4.440963 1.3090197 8.848039 1.8674873 13.091031 1.6611744 6.395699-.3130264 11.921042-2.3227985 16.426211-5.9759593 4.535489-3.6762822 7.116241-8.4570497 7.681617-14.2089106.57251-5.8372318-1.105782-9.9777179-4.990287-12.3111878-1.990407-1.1774063-3.748957-2.0489004-5.229278-2.5895824-1.471403-.5335678-3.959412-1.287677-7.396254-2.2374276-3.39582-.9355223-5.832107-1.7927879-7.246438-2.5433399-1.244896-.6616241-1.769251-1.5473466-1.647971-2.7870025.226507-2.3245771 2.621773-3.6140326 7.112674-3.8310168 3.611626-.177856 7.235737.6545098 10.752837 2.4597476.722325.3966187 1.519558.871494 2.247234 1.3374766.904244.5033323 1.599816.7043095 2.263286.6705169.977368-.0462426 1.82454-.5887032 2.746619-1.7607738z" fill="#2fb7ec" fill-rule="evenodd" transform="translate(73 28)"/></svg>

<?xml version="1.0" encoding="UTF-8"?>
<svg width="400px" height="140px" viewBox="0 0 400 140" version="1.1" xmlns="http://www.w3.org/2000/svg" xmlns:xlink="http://www.w3.org/1999/xlink">
    <title>Artboard</title>
    <g id="Artboard" stroke="none" stroke-width="1" fill="none" fill-rule="evenodd">
        <g id="Group" transform="translate(73.000000, 28.000000)" fill="#2FB7EC">
            <path d="M126.701225,17.8656286 C125.154914,16.0479409 124.575271,13.8229632 124.964078,11.1835811 C125.351101,8.55131332 126.58708,6.3209999 128.666663,4.50509081 C130.74803,2.68562461 133.102276,1.77855934 135.73475,1.77855934 C138.36544,1.77855934 140.455725,2.68740317 142.000252,4.50509081 C143.548347,6.31922134 144.126207,8.54953476 143.739184,11.1835811 C143.350376,13.8229632 142.116181,16.0479409 140.036598,17.8656286 C137.953448,19.6797591 135.595635,20.5903815 132.966728,20.5903815 C130.334254,20.5903815 128.245753,19.6815377 126.699442,17.8656286 M105.712772,26.9380598 C102.623717,26.9380598 99.7504678,29.447607 99.3242067,32.5120648 L96.1852131,55.3363168 C95.8392103,57.8227428 94.6442525,59.9783567 92.6039066,61.8067157 C90.5617772,63.6350747 88.2610376,64.5492542 85.7106052,64.5492542 C83.2279466,64.5492542 81.216137,63.6546388 79.680527,61.861851 C78.1395665,60.0708418 77.5492217,57.8956637 77.9023584,55.3363168 L79.7964558,41.4848966 C79.8535284,38.7210154 77.7739451,36.5582873 74.9060463,36.5582873 L67.3974308,36.5582873 C64.529532,36.5582873 61.8471192,38.7210154 61.1408457,41.4848966 L59.1843252,55.3363168 C58.8311884,57.8974423 57.6326635,60.0708418 55.5958847,61.861851 C53.5591058,63.6546388 51.2993871,64.5492542 48.8202955,64.5492542 C46.3376369,64.5492542 44.3115591,63.6350747 42.7420623,61.8067157 C41.1707819,59.9801352 40.5590349,57.8227428 40.9032541,55.3363168 L45.1087922,25.0510083 C45.554672,22.1021569 43.8032562,19.0216922 41.1315445,17.7713649 C41.1315445,17.7713649 9.4598118,4.6064687 7.39628016,3.75987445 C5.30599574,2.90616596 2.93748233,4.81989582 2.12776465,8.01063128 L0.192646393,15.6282009 C-0.618854812,18.8189364 1.2092523,22.4471975 4.25015242,23.6904104 L25.4758136,32.4515938 L22.295799,55.3363168 C21.2292545,63.0108004 23.0323924,69.5772415 27.7141301,75.0231902 C32.3940843,80.472696 38.5650605,83.1938918 46.2306257,83.1938918 C53.3058461,83.1938918 59.7675359,80.8195151 65.6085611,76.0654259 C70.2742471,80.8195151 76.1134888,83.1938918 83.1191519,83.1938918 C90.7829336,83.1938918 97.7101219,80.472696 103.904284,75.0231902 C110.096662,69.5772415 113.727907,63.0108004 114.794452,55.3363168 C114.794452,55.3363168 118.120715,31.1852595 118.181354,30.7637409 C118.470285,28.6579267 116.183813,26.9398384 113.096541,26.9398384 L105.712772,26.9398384 L105.712772,26.9380598 Z M136.826263,26.6783901 L130.191572,26.6783901 C127.414633,26.6783901 124.832097,28.9318248 124.448641,31.6850347 C124.448641,31.6850347 117.765795,79.2703899 117.735475,79.5033811 C117.473297,81.3939897 119.527911,82.9413363 122.303067,82.9413363 L128.937758,82.9413363 C131.712914,82.9413363 134.29545,80.6879017 134.677123,77.9346918 L141.392072,30.1163453 C141.65425,28.2257368 139.599636,26.6783901 136.826263,26.6783901 M250.566629,32.9335833 C246.762383,28.4569495 241.613363,26.2177433 235.116003,26.2177433 C228.616859,26.2177433 222.549327,27.6370336 216.567404,32.7859629 L220.803262,3.50554046 C221.07079,1.57758214 218.973371,0 216.14471,0 L209.376255,0 C206.542243,0 203.906202,2.29789867 203.519178,5.10980099 L192.645062,79.7025798 C192.377534,81.6287596 194.473169,83.2081203 197.305397,83.2081203 L204.073852,83.2081203 C206.854359,83.2081203 209.438678,80.9920353 209.902393,78.2512754 L209.91131,78.2512754 L213.317832,54.9877192 C214.00627,50.2869868 215.814759,46.7227539 218.746864,44.2985775 C221.677186,41.8726226 224.875036,40.6596451 228.33328,40.6596451 C235.324675,40.6596451 238.147985,45.2874565 236.794294,54.5395222 L233.164833,79.6314374 C232.897305,81.5593957 234.994723,83.1369779 237.826952,83.1369779 L244.59184,83.1369779 C247.427635,83.1369779 250.06011,80.8390792 250.452484,78.0271769 L254.634836,50.8454545 C255.72635,43.3826195 254.370875,37.4102172 250.568413,32.9335833 M187.688662,41.1789844 L190.854409,37.148769 C192.195615,35.441352 192.227718,32.8144199 190.934667,31.0180749 C190.367508,30.045203 188.719536,29.100788 187.214246,28.2897649 L187.044812,28.1972798 C182.282816,25.6219259 177.602861,24.6508325 171.399782,24.9531876 C164.661647,25.282221 158.911581,27.2653147 154.311885,30.8491118 C149.674735,34.4595872 147.052962,39.0322633 146.525041,44.4373052 C145.988201,49.9223822 147.844845,54.0166258 152.037898,56.6079867 C154.030089,57.8636496 155.851062,58.8205146 157.449095,59.4536817 C159.036427,60.0886274 161.372837,60.8320652 164.395902,61.6679881 C167.331575,62.4843468 169.568108,63.4109762 171.037727,64.4123051 C172.386068,65.337156 172.988897,66.3278135 172.878319,67.4411917 C172.765957,68.6043695 172.163128,69.5452274 171.039511,70.3153436 C169.871306,71.1156953 168.310727,71.5710065 166.405928,71.6634916 C161.255125,71.9142684 156.409304,70.7155194 152.004011,68.0992586 L148.734821,66.2940209 C148.194916,65.999926 147.58341,65.8619499 146.969137,65.8956236 C145.958367,65.9384694 145.017163,66.4207627 144.393735,67.2153146 L139.692379,73.429601 C139.210829,74.0663252 139.021776,74.8293272 139.157323,75.5763221 C139.28752,76.3019743 139.706647,76.9280272 140.34158,77.3513243 C141.880757,78.5607447 143.480573,79.6154304 145.100009,80.488703 C147.251401,81.6649016 149.523646,82.6064534 151.877381,83.2970482 C156.318344,84.6060679 160.72542,85.1645355 164.968412,84.9582226 C171.364111,84.6451962 176.889454,82.6354241 181.394623,78.9822633 C185.930112,75.3059811 188.510864,70.5252136 189.07624,64.7733527 C189.64875,58.9361209 187.970458,54.7956348 184.085953,52.4621649 C182.095546,51.2847586 180.336996,50.4132645 178.856675,49.8725825 C177.385272,49.3390147 174.897263,48.5849055 171.460421,47.6351549 C168.064601,46.6996326 165.628314,45.842367 164.213983,45.091815 C162.969087,44.4301909 162.444732,43.5444684 162.566012,42.3048125 C162.792519,39.9802354 165.187785,38.6907799 169.678686,38.4737957 C173.290312,38.2959397 176.914423,39.1283055 180.431523,40.9335433 C181.153848,41.330162 181.951081,41.8050373 182.678757,42.2710199 C183.583001,42.7743522 184.278573,42.9753294 184.942043,42.9415368 C185.919411,42.8952942 186.766583,42.3528336 187.688662,41.180763 L187.688662,41.1789844 Z" id="Shape"></path>
        </g>
    </g>
</svg>
